X:197
T: GRAF FRIEDRICH WOLLT AUSREITEN
N: E0107
O: Europa, Mitteleuropa, Deutschland, Schlesien
R: erzaehlendes Volks - Lied, Sage, Liebe, Leid, Tod
M: 4/4
L: 1/8
K: Bb
F2 | B2F2GABG | F3ED2
F2 | B2F2GABG | F3ED2
B2 | c2A2F2F2 | e3cd2
B2 | c2A2F2B2 | dccAB2
B2 | c2A2F2F2 | e3cd2
B2 | c2A2F2B2 | dccAB2

